X: 34
T: Banbury Bill Alternate
M:4/4
L:1/4
Q:100
C:Richard Davies
K:D
DFAd|=c B/2A/2G/2A/2 B| A F/2E/2D/2E/2 F| GE E2|D/2E/2F/2G/2 Ad|=c B/2A/
2G/2A/2 B| A F/2E/2D/2E/2 F| GE D2:|
F/2E/2|D d d2|=c2 BG| D d d/2e/2 d| =c2 BG|D d d/2e/2 d| =c B/2A/2G/2A/2
 B | A F/2E/2D/2E/2 F|1 GE D:|2 GE D2||
